source/images/icon-support.svg

<svg height="64" viewBox="0 0 65 64" width="65" xmlns="http://www.w3.org/2000/svg"><g fill="#0093c9" fill-rule="evenodd"><path d="m28.1130417 34.2621855c0-.9215323.1473333-1.7046774.4365833-2.3504839.28925-.6447581.7810833-1.2475806 1.47225-1.7969355 1.0150833-.8292742 1.9521667-1.5516129 2.80475-2.1691129.8536667-.6112097 1.5881667-1.1867742 2.20675-1.7245967.6185833-.5378226 1.0985-1.0441936 1.4440833-1.5201613.3455834-.4770162.5156667-.9760484.5156667-1.4981452 0-1.0169355-.3726667-1.8042742-1.11475-2.3725-.7464167-.5692742-1.6824167-.8533871-2.8058333-.8533871-1.70625 0-3.0073334.3994355-3.8956667 1.1983065-.8894167.7988709-1.3888333 1.7665322-1.4960833 2.9029838l-8.3925834-.4602419c.3965-3.2562903 1.8135-5.7367742 4.2499167-7.4425 2.4320833-1.7046774 5.5585833-2.5570161 9.3719167-2.5570161 1.6705 0 3.2380833.1918548 4.7103333.5755645 1.47225.384758 2.7700833.9603226 3.89675 1.7287903 1.1266667.7674194 2.0160833 1.7193548 2.6704167 2.8568548.6510833 1.1364517.9804166 2.4416936.9804166 3.9167742 0 .8900807-.10725 1.6973387-.3293333 2.4186291-.2145.7223387-.5871667 1.4362903-1.1158333 2.1429032-.5275834.7066129-1.2176667 1.4205645-2.067 2.1429032-.8569167.7223387-1.9359167 1.5128226-3.2456667 2.3735484-.8330833.5525-1.3964167 1.0903226-1.69 1.6082258-.2903333.5262903-.4333333 1.0483871-.4333333 1.5704839v1.3366935h-8.17375zm-.9240834 8.8473387c0-.5839516.12675-1.1364516.38025-1.6585484.2545834-.5220968.60775-.9760484 1.0638334-1.3597581.45175-.3837096.988-.6835483 1.6065833-.8984677.6153333-.2107258 1.2696667-.3229032 1.9608333-.3229032.6900834 0 1.3444167.1121774 1.95975.3229032.6185834.2149194 1.1548334.5147581 1.6076667.8984677.4560833.3837097.80925.8376613 1.06275 1.3597581.2545833.5220968.3813333 1.0745968.3813333 1.6585484s-.12675 1.1364516-.3813333 1.6585484c-.2535.5231451-.6066667.9760484-1.06275 1.359758-.4528333.3837097-.9890833.6835484-1.6076667.8984678-.6153333.2149193-1.2696666.3229032-1.95975.3229032-.6911666 0-1.3455-.1079839-1.9608333-.3229032-.6185833-.2149194-1.1548333-.5147581-1.6065833-.8984678-.4560834-.3837096-.80925-.8366129-1.0638334-1.359758-.2535-.5220968-.38025-1.0745968-.38025-1.6585484z"/><path d="m10.4756167 9.04554032c-2.8329167 2.74153228-5.09058337 6.00620968-6.77300003 9.79193548-1.68241667 3.7867742-2.52416667 7.7570161-2.52416667 11.9075807 0 5.7294354 1.51558333 11.0101612 4.5435 15.8400806l-5.72216667 16.4890323 17.54674997-5.4558065c4.7655834 2.5528226 9.8843334 3.8276613 15.35625 3.8276613 4.29 0 8.3925834-.8135484 12.3045-2.4416936 3.913-1.6281451 7.2854167-3.8129838 10.1183334-6.5555645 2.834-2.7415322 5.0916666-6.0051613 6.7740833-9.7919355 1.6824167-3.7857258 2.5230833-7.7559677 2.5230833-11.9117741 0-4.1505646-.8406666-8.1208065-2.5230833-11.9075807-1.6824167-3.7857258-3.9400833-7.0504032-6.7740833-9.79193548-2.8329167-2.74153226-6.2053334-4.92637097-10.1183334-6.55451613-3.9119166-1.62814516-8.0145-2.44274193-12.3045-2.44274193-4.29325 0-8.3958333.81459677-12.3088333 2.44274193-3.9119167 1.62814516-7.2854167 3.81298387-10.1183333 6.55451613m7.9126666 43.03524198-10.18224997 3.1367742 3.32149997-9.4879033c-3.3648333-4.4776613-5.04724997-9.4732258-5.04724997-14.9845967 0-3.4439517.702-6.7505646 2.10275-9.9104033 1.404-3.1640322 3.28141667-5.8835484 5.63874997-8.1637903 2.35625-2.2812903 5.1664167-4.09814516 8.4359167-5.45685484 3.2651667-1.35556451 6.682-2.03491935 10.2450833-2.03491935 3.5598334 0 6.9755834.67935484 10.2418334 2.03491935 3.2695 1.35870968 6.0785833 3.17556454 8.4359166 5.45685484 2.3573334 2.2802419 4.2336667 4.9997581 5.63875 8.1637903 1.40075 3.1598387 2.10275 6.4664516 2.10275 9.9104033 0 3.4491935-.702 6.754758-2.10275 9.9156451-1.4050833 3.1640323-3.2814166 5.8825-5.63875 8.1637903-2.3573333 2.2812904-5.1664166 4.0970968-8.4359166 5.4568549-3.26625 1.3555645-6.682 2.0349193-10.2418334 2.0349193-5.2455 0-10.0869166-1.4090322-14.5145-4.2354838"/></g></svg>

<?xml version="1.0" encoding="UTF-8"?>
<svg width="65px" height="64px" viewBox="0 0 65 64" version="1.1" xmlns="http://www.w3.org/2000/svg" xmlns:xlink="http://www.w3.org/1999/xlink">
    <!-- Generator: Sketch 41.1 (35376) - https://www.sketchapp.com -->
    <title>icon-support</title>
    <desc>Created with Sketch.</desc>
    <defs></defs>
    <g id="Updated-HOME" stroke="none" stroke-width="1" fill="none" fill-rule="evenodd">
        <g id="home-updated" transform="translate(-964.000000, -803.000000)" fill="#0093C9">
            <g id="Support" transform="translate(944.000000, 766.000000)">
                <g id="icon-support" transform="translate(20.000000, 37.000000)">
                    <path d="M28.1130417,34.2621855 C28.1130417,33.3406532 28.260375,32.5575081 28.549625,31.9117016 C28.838875,31.2669435 29.3307083,30.664121 30.021875,30.1147661 C31.0369583,29.2854919 31.9740417,28.5631532 32.826625,27.9456532 C33.6802917,27.3344435 34.4147917,26.758879 35.033375,26.2210565 C35.6519583,25.6832339 36.131875,25.1768629 36.4774583,24.7008952 C36.8230417,24.223879 36.993125,23.7248468 36.993125,23.20275 C36.993125,22.1858145 36.6204583,21.3984758 35.878375,20.83025 C35.1319583,20.2609758 34.1959583,19.9768629 33.0725417,19.9768629 C31.3662917,19.9768629 30.0652083,20.3762984 29.176875,21.1751694 C28.2874583,21.9740403 27.7880417,22.9417016 27.6807917,24.0781532 L19.2882083,23.6179113 C19.6847083,20.361621 21.1017083,17.8811371 23.538125,16.1754113 C25.9702083,14.4707339 29.0967083,13.6183952 32.9100417,13.6183952 C34.5805417,13.6183952 36.148125,13.81025 37.620375,14.1939597 C39.092625,14.5787177 40.3904583,15.1542823 41.517125,15.92275 C42.6437917,16.6901694 43.5332083,17.6421048 44.1875417,18.7796048 C44.838625,19.9160565 45.1679583,21.2212984 45.1679583,22.696379 C45.1679583,23.5864597 45.0607083,24.3937177 44.838625,25.1150081 C44.624125,25.8373468 44.2514583,26.5512984 43.7227917,27.2579113 C43.1952083,27.9645242 42.505125,28.6784758 41.6557917,29.4008145 C40.798875,30.1231532 39.719875,30.9136371 38.410125,31.7743629 C37.5770417,32.3268629 37.0137083,32.8646855 36.720125,33.3825887 C36.4297917,33.908879 36.2867917,34.4309758 36.2867917,34.9530726 L36.2867917,36.2897661 L28.1130417,36.2897661 L28.1130417,34.2621855 Z M27.1889583,43.1095242 C27.1889583,42.5255726 27.3157083,41.9730726 27.5692083,41.4509758 C27.8237917,40.928879 28.1769583,40.4749274 28.6330417,40.0912177 C29.0847917,39.7075081 29.6210417,39.4076694 30.239625,39.19275 C30.8549583,38.9820242 31.5092917,38.8698468 32.2004583,38.8698468 C32.8905417,38.8698468 33.544875,38.9820242 34.1602083,39.19275 C34.7787917,39.4076694 35.3150417,39.7075081 35.767875,40.0912177 C36.2239583,40.4749274 36.577125,40.928879 36.830625,41.4509758 C37.0852083,41.9730726 37.2119583,42.5255726 37.2119583,43.1095242 C37.2119583,43.6934758 37.0852083,44.2459758 36.830625,44.7680726 C36.577125,45.2912177 36.2239583,45.744121 35.767875,46.1278306 C35.3150417,46.5115403 34.7787917,46.811379 34.1602083,47.0262984 C33.544875,47.2412177 32.8905417,47.3492016 32.2004583,47.3492016 C31.5092917,47.3492016 30.8549583,47.2412177 30.239625,47.0262984 C29.6210417,46.811379 29.0847917,46.5115403 28.6330417,46.1278306 C28.1769583,45.744121 27.8237917,45.2912177 27.5692083,44.7680726 C27.3157083,44.2459758 27.1889583,43.6934758 27.1889583,43.1095242 L27.1889583,43.1095242 Z" id="Fill-4"></path>
                    <path d="M10.4756167,9.04554032 C7.6427,11.7870726 5.38503333,15.05175 3.70261667,18.8374758 C2.0202,22.62425 1.17845,26.5944919 1.17845,30.7450565 C1.17845,36.4744919 2.69403333,41.7552177 5.72195,46.5851371 L-0.000216666667,63.0741694 L17.5465333,57.6183629 C22.3121167,60.1711855 27.4308667,61.4460242 32.9027833,61.4460242 C37.1927833,61.4460242 41.2953667,60.6324758 45.2072833,59.0043306 C49.1202833,57.3761855 52.4927,55.1913468 55.3256167,52.4487661 C58.1596167,49.7072339 60.4172833,46.4436048 62.0997,42.6568306 C63.7821167,38.8711048 64.6227833,34.9008629 64.6227833,30.7450565 C64.6227833,26.5944919 63.7821167,22.62425 62.0997,18.8374758 C60.4172833,15.05175 58.1596167,11.7870726 55.3256167,9.04554032 C52.4927,6.30400806 49.1202833,4.11916935 45.2072833,2.49102419 C41.2953667,0.862879032 37.1927833,0.0482822581 32.9027833,0.0482822581 C28.6095333,0.0482822581 24.50695,0.862879032 20.59395,2.49102419 C16.6820333,4.11916935 13.3085333,6.30400806 10.4756167,9.04554032 M18.3882833,52.0807823 L8.20603333,55.2175565 L11.5275333,45.7296532 C8.1627,41.2519919 6.48028333,36.2564274 6.48028333,30.7450565 C6.48028333,27.3011048 7.18228333,23.9944919 8.58303333,20.8346532 C9.98703333,17.670621 11.86445,14.9511048 14.2217833,12.6708629 C16.5780333,10.3895726 19.3882,8.57271774 22.6577,7.21400806 C25.9228667,5.85844355 29.3397,5.17908871 32.9027833,5.17908871 C36.4626167,5.17908871 39.8783667,5.85844355 43.1446167,7.21400806 C46.4141167,8.57271774 49.2232,10.3895726 51.5805333,12.6708629 C53.9378667,14.9511048 55.8142,17.670621 57.2192833,20.8346532 C58.6200333,23.9944919 59.3220333,27.3011048 59.3220333,30.7450565 C59.3220333,34.19425 58.6200333,37.4998145 57.2192833,40.6607016 C55.8142,43.8247339 53.9378667,46.5432016 51.5805333,48.8244919 C49.2232,51.1057823 46.4141167,52.9215887 43.1446167,54.2813468 C39.8783667,55.6369113 36.4626167,56.3162661 32.9027833,56.3162661 C27.6572833,56.3162661 22.8158667,54.9072339 18.3882833,52.0807823" id="Fill-1"></path>
                </g>
            </g>
        </g>
    </g>
</svg>
